public/check.svg

<svg width="64" height="64" viewBox="0 0 64 64" fill="none" xmlns="http://www.w3.org/2000/svg">
<path d="M31.9955 63.9891C26.4418 63.9886 20.9837 62.5425 16.1582 59.7931C11.3326 57.0436 7.30575 53.0855 4.47351 48.3079C1.64128 43.5303 0.101236 38.0978 0.00482311 32.5446C-0.0915901 26.9914 1.25894 21.5087 3.92362 16.6356C3.96954 16.5517 4.03155 16.4776 4.10609 16.4176C4.18064 16.3576 4.26628 16.3129 4.35811 16.286C4.44994 16.2591 4.54616 16.2506 4.64129 16.2609C4.73642 16.2712 4.82859 16.3001 4.91254 16.3461C4.99648 16.392 5.07056 16.454 5.13054 16.5285C5.19052 16.6031 5.23524 16.6887 5.26213 16.7805C5.28902 16.8724 5.29755 16.9686 5.28725 17.0637C5.27695 17.1589 5.24802 17.251 5.2021 17.335C1.60587 23.9051 0.550631 31.5681 2.23723 38.8657C3.92384 46.1634 8.23454 52.5861 14.3489 56.9117C20.4634 61.2372 27.9546 63.1637 35.3971 62.3243C42.8395 61.4849 49.7136 57.9384 54.7111 52.3596C59.7086 46.7808 62.4806 39.5593 62.4997 32.0693C62.5187 24.5793 59.7833 17.3438 54.8142 11.7397C49.8451 6.13563 42.9891 2.55423 35.551 1.6771C28.1129 0.799965 20.6119 2.68834 14.4756 6.98281C14.3175 7.07937 14.1285 7.11204 13.9471 7.07417C13.7657 7.03629 13.6056 6.9307 13.4993 6.77892C13.393 6.62714 13.3486 6.44055 13.375 6.25715C13.4014 6.07374 13.4967 5.90729 13.6415 5.79169C17.7584 2.90734 22.4969 1.03353 27.473 0.322092C32.4491 -0.389343 37.5228 0.0816257 42.2829 1.69682C47.0431 3.31201 51.3557 6.02599 54.8715 9.61883C58.3872 13.2117 61.007 17.5823 62.5187 22.3765C64.0304 27.1707 64.3914 32.2537 63.5725 37.2134C62.7535 42.1732 60.7777 46.8702 57.805 50.9239C54.8324 54.9776 50.9466 58.274 46.4625 60.5458C41.9784 62.8176 37.0222 64.0009 31.9955 64V63.9891Z" fill="#18753C"/>
<path d="M10.21 30.8546L15.9413 25.1233L32.7142 41.8962L26.9828 47.6275L10.21 30.8546Z" fill="#18753C"/>
<path d="M46.9854 16.1594L52.7167 21.8908L26.9796 47.6279L21.2482 41.8965L46.9854 16.1594Z" fill="#18753C"/>
</svg>

<?xml version="1.0" encoding="UTF-8"?>
<svg id="Calque_1" xmlns="http://www.w3.org/2000/svg" version="1.1" viewBox="0 0 64 64">
  <!-- Generator: Adobe Illustrator 29.4.0, SVG Export Plug-In . SVG Version: 2.1.0 Build 152)  -->
  <defs>
    <style>
      .st0 {
        fill: #6a6af4;
      }
    </style>
  </defs>
  <path class="st0" d="M32,64c-5.6,0-11-1.4-15.8-4.2-4.8-2.7-8.9-6.7-11.7-11.5C1.6,43.5.1,38.1,0,32.5c0-5.6,1.3-11,3.9-15.9,0,0,.1-.2.2-.2,0,0,.2-.1.3-.1,0,0,.2,0,.3,0s.2,0,.3,0c0,0,.2.1.2.2,0,0,.1.2.1.3,0,0,0,.2,0,.3,0,0,0,.2,0,.3-3.6,6.6-4.7,14.2-3,21.5,1.7,7.3,6,13.7,12.1,18,6.1,4.3,13.6,6.3,21,5.4,7.4-.8,14.3-4.4,19.3-10,5-5.6,7.8-12.8,7.8-20.3,0-7.5-2.7-14.7-7.7-20.3-5-5.6-11.8-9.2-19.3-10.1-7.4-.9-14.9,1-21.1,5.3-.2,0-.3.1-.5,0-.2,0-.3-.1-.4-.3-.1-.2-.2-.3-.1-.5,0-.2.1-.3.3-.5C17.8,2.9,22.5,1,27.5.3c5-.7,10-.2,14.8,1.4,4.8,1.6,9.1,4.3,12.6,7.9,3.5,3.6,6.1,8,7.6,12.8,1.5,4.8,1.9,9.9,1.1,14.8-.8,5-2.8,9.7-5.8,13.7-3,4.1-6.9,7.4-11.3,9.6s-9.4,3.5-14.5,3.5h0Z"/>
  <path class="st0" d="M10.2,30.9l5.7-5.7,16.8,16.8-5.7,5.7L10.2,30.9Z"/>
  <path class="st0" d="M47,16.2l5.7,5.7-25.7,25.7-5.7-5.7,25.7-25.7Z"/>
</svg>
